public/logos/nds.svg

<?xml version="1.0" encoding="UTF-8" standalone="no"?>
<!-- Created with Inkscape (http://www.inkscape.org/) -->
<svg
   xmlns:svg="http://www.w3.org/2000/svg"
   xmlns="http://www.w3.org/2000/svg"
   version="1.0"
   width="750.54327"
   height="115.8307"
   id="svg101576">
  <defs
     id="defs101578" />
  <g
     transform="translate(-35.53469,-263.1837)"
     id="layer1">
    <g
       transform="translate(7.088693,7.080902)"
       id="g101650">
      <path
         d="M 487.38946,354.59939 C 487.38946,355.67865 486.50444,356.64997 485.41436,356.64997 L 447.61769,356.64997 C 446.51682,356.64997 445.6318,355.67865 445.6318,354.59939 L 445.6318,327.29336 C 445.6318,326.2141 446.51682,325.35065 447.61769,325.35065 L 485.41436,325.35065 C 486.50444,325.35065 487.38946,326.2141 487.38946,327.29336 L 487.38946,354.59939 z M 485.74894,317.1481 L 447.27232,317.1481 C 441.70319,317.1481 437.15939,321.6811 437.15939,327.29336 L 437.15939,354.70725 C 437.15939,360.21165 441.70319,364.8526 447.27232,364.8526 L 485.74894,364.8526 C 491.32886,364.8526 495.86187,360.21165 495.86187,354.70725 L 495.86187,327.29336 C 495.86187,321.6811 491.32886,317.1481 485.74894,317.1481"
         style="fill:#929497;fill-rule:nonzero;stroke:none"
         id="path100608" />
      <path
         d="M 44.363266,276.13513 C 44.363266,276.13513 44.363266,310.88819 44.363266,311.42782 C 43.899172,311.42782 36.009577,311.42782 35.534688,311.42782 C 35.534688,310.88819 35.534688,264.26295 35.534688,263.72332 C 36.031156,263.72332 42.852263,263.72332 43.078909,263.72332 L 78.835728,298.47639 C 78.835728,298.47639 78.835728,264.26295 78.835728,263.72332 C 79.321402,263.72332 85.90506,263.72332 85.90506,263.72332 C 85.90506,263.72332 87.157035,263.72332 87.545578,263.72332 C 87.545578,264.26295 87.545578,310.88819 87.545578,311.42782 C 87.070698,311.42782 80.886377,311.42782 80.648928,311.42782 L 44.363266,276.13513"
         style="fill:#221f1f;fill-rule:nonzero;stroke:none"
         id="path100618" />
      <path
         d="M 132.87569,276.13513 C 132.87569,276.13513 132.87569,310.88819 132.87569,311.42782 C 132.4008,311.42782 124.53278,311.42782 124.04711,311.42782 C 124.04711,310.88819 124.04711,264.26295 124.04711,263.72332 C 124.54358,263.72332 131.35389,263.72332 131.58053,263.72332 L 167.33735,298.47639 C 167.33735,298.47639 167.33735,264.26295 167.33735,263.72332 C 167.82304,263.72332 174.41748,263.72332 174.41748,263.72332 C 174.41748,263.72332 175.68025,263.72332 176.05801,263.72332 C 176.05801,264.26295 176.05801,310.88819 176.05801,311.42782 C 175.57232,311.42782 169.3988,311.42782 169.16135,311.42782 L 132.87569,276.13513"
         style="fill:#221e1f;fill-rule:nonzero;stroke:none;stroke-width:0.05;stroke-linecap:butt;stroke-linejoin:miter;stroke-miterlimit:4;stroke-dasharray:none"
         id="path100622" />
      <path
         d="M 316.32229,276.13513 C 316.32229,276.13513 316.32229,310.88819 316.32229,311.42782 C 315.83661,311.42782 307.97939,311.42782 307.49371,311.42782 C 307.49371,310.88819 307.49371,264.26295 307.49371,263.72332 C 307.99019,263.72332 314.81128,263.72332 315.02714,263.72332 L 350.78396,298.47639 C 350.78396,298.47639 350.78396,264.26295 350.78396,263.72332 C 351.26964,263.72332 357.86409,263.72332 357.86409,263.72332 C 357.86409,263.72332 359.12686,263.72332 359.50461,263.72332 C 359.50461,264.26295 359.50461,310.88819 359.50461,311.42782 C 359.01892,311.42782 352.8454,311.42782 352.61875,311.42782 L 316.32229,276.13513"
         style="fill:#221e1f;fill-rule:nonzero;stroke:none;stroke-width:0.05;stroke-linecap:butt;stroke-linejoin:miter;stroke-miterlimit:4;stroke-dasharray:none"
         id="path100626" />
      <path
         d="M 108.57011,263.72332 C 108.57011,263.72332 109.82209,263.72332 110.19984,263.72332 C 110.19984,264.26295 110.19984,310.88819 110.19984,311.42782 C 109.73574,311.42782 101.84615,311.42782 101.37126,311.42782 C 101.37126,310.88819 101.37126,264.26295 101.37126,263.72332 C 101.85694,263.72332 108.57011,263.72332 108.57011,263.72332"
         style="fill:#221e1f;fill-rule:nonzero;stroke:none;stroke-width:0.05;stroke-linecap:butt;stroke-linejoin:miter;stroke-miterlimit:4;stroke-dasharray:none"
         id="path100630" />
      <path
         d="M 236.18514,263.72332 C 236.18514,263.72332 237.41553,263.72332 237.80407,263.72332 C 237.80407,264.15501 237.80407,271.49418 237.80407,271.92587 C 237.28602,271.92587 216.52052,271.92587 216.52052,271.92587 C 216.52052,271.92587 216.52052,310.88819 216.52052,311.42782 C 216.04563,311.42782 207.82145,311.42782 207.34656,311.42782 C 207.34656,310.88819 207.34656,271.92587 207.34656,271.92587 C 207.34656,271.92587 186.58106,271.92587 186.063,271.92587 C 186.063,271.49418 186.063,264.15501 186.063,263.72332 C 186.59185,263.72332 236.18514,263.72332 236.18514,263.72332"
         style="fill:#221e1f;fill-rule:nonzero;stroke:none;stroke-width:0.05;stroke-linecap:butt;stroke-linejoin:miter;stroke-miterlimit:4;stroke-dasharray:none"
         id="path100634" />
      <path
         d="M 292.73985,263.72332 C 292.73985,263.72332 294.0134,263.72332 294.39115,263.72332 C 294.39115,264.15501 294.39115,271.49418 294.39115,271.92587 C 293.88389,271.92587 256.55131,271.92587 256.55131,271.92587 L 256.55131,282.61084 C 256.55131,282.61084 285.32513,282.61084 285.82161,282.61084 C 285.82161,283.15047 285.82161,290.27376 285.82161,290.81347 C 285.32513,290.81347 256.55131,290.81347 256.55131,290.81347 L 256.55131,303.22527 C 256.55131,303.22527 293.88389,303.22527 294.39115,303.22527 C 294.39115,303.65696 294.39115,310.88819 294.39115,311.42782 C 293.88389,311.42782 248.31635,311.42782 247.80908,311.42782 C 247.80908,310.88819 247.80908,264.26295 247.80908,263.72332 C 248.31635,263.72332 292.73985,263.72332 292.73985,263.72332"
         style="fill:#221e1f;fill-rule:nonzero;stroke:none;stroke-width:0.05;stroke-linecap:butt;stroke-linejoin:miter;stroke-miterlimit:4;stroke-dasharray:none"
         id="path100638" />
      <path
         d="M 408.59063,303.22527 L 381.47891,303.22527 L 381.47891,271.92587 L 408.59063,271.92587 C 417.07383,271.92587 420.08505,280.3443 420.08505,287.57553 C 420.08505,294.6989 417.07383,303.22527 408.59063,303.22527 z M 423.07468,270.73867 C 419.62096,266.09772 414.51592,263.72332 408.3424,263.72332 C 408.3424,263.72332 373.48139,263.72332 372.96333,263.72332 C 372.96333,264.26295 372.96333,310.88819 372.96333,311.42782 C 373.48139,311.42782 408.3424,311.42782 408.3424,311.42782 C 414.51592,311.42782 419.62096,308.94547 423.07468,304.41247 C 426.31254,300.20321 428.02861,294.37507 428.02861,287.57553 C 428.02861,280.77607 426.31254,274.94793 423.07468,270.73867"
         style="fill:#221e1f;fill-rule:nonzero;stroke:none;stroke-width:0.05;stroke-linecap:butt;stroke-linejoin:miter;stroke-miterlimit:4;stroke-dasharray:none"
         id="path100642" />
      <path
         d="M 487.38946,301.28256 C 487.38946,302.25387 486.50444,303.22527 485.41436,303.22527 L 447.61769,303.22527 C 446.51682,303.22527 445.6318,302.25387 445.6318,301.28256 L 445.6318,273.86858 C 445.6318,272.78933 446.51682,271.92587 447.61769,271.92587 L 485.41436,271.92587 C 486.50444,271.92587 487.38946,272.78933 487.38946,273.86858 L 487.38946,301.28256 z M 485.74894,263.72332 L 447.27232,263.72332 C 441.70319,263.72332 437.15939,268.25633 437.15939,273.86858 L 437.15939,301.28256 C 437.15939,306.89482 441.70319,311.42782 447.27232,311.42782 L 485.74894,311.42782 C 491.32886,311.42782 495.86187,306.89482 495.86187,301.28256 L 495.86187,273.86858 C 495.86187,268.25633 491.32886,263.72332 485.74894,263.72332"
         style="fill:#221e1f;fill-rule:nonzero;stroke:none;stroke-width:0.05;stroke-linecap:butt;stroke-linejoin:miter;stroke-miterlimit:4;stroke-dasharray:none"
         id="path100646" />
      <path
         d="M 646.02323,344.66994 C 655.17559,348.33948 674.50562,351.25359 689.59407,351.25359 C 706.10718,351.25359 712.93911,345.64125 712.93911,338.51796 C 712.93911,332.04225 706.59284,328.37262 688.36369,321.6811 C 663.98256,312.72296 646.09878,305.59967 646.09878,289.51824 C 646.09878,273.00521 667.61981,263.1837 700.41936,263.1837 C 718.03333,263.1837 724.07736,264.26295 735.25878,266.31361 L 735.34513,282.07121 C 724.35792,280.02056 714.62276,276.45887 699.50193,276.45887 C 683.29106,276.45887 676.38357,281.63944 676.38357,286.92796 C 676.38357,294.59096 687.02537,298.2605 705.68629,304.9521 C 731.66471,314.23399 746.11638,321.35727 746.11638,337.00693 C 746.11638,353.19631 728.01676,364.8526 687.19808,364.8526 C 670.43669,364.8526 658.87755,363.77334 646.02323,361.61474 L 646.02323,344.66994"
         style="fill:#221e1f;fill-rule:nonzero;stroke:none;stroke-width:0.05;stroke-linecap:butt;stroke-linejoin:miter;stroke-miterlimit:4;stroke-dasharray:none"
         id="path100656" />
      <path
         d="M 559.14054,277.10644 L 539.71335,277.10644 L 539.71335,350.71396 L 559.14054,350.71396 C 588.96126,350.71396 607.77326,337.87039 607.77326,314.0181 C 607.77326,290.1659 588.96126,277.10644 559.14054,277.10644 z M 611.28094,357.51342 C 601.67528,361.83062 583.50007,364.63671 567.61295,364.63671 L 506.89219,364.63671 L 506.89219,263.3995 L 567.61295,263.3995 C 583.50007,263.3995 601.67528,266.20567 611.30253,270.52278 C 634.69071,281.09981 642.31048,298.0447 642.31048,314.0181 C 642.31048,329.99159 634.75547,346.93639 611.28094,357.51342"
         style="fill:#221e1f;fill-rule:nonzero;stroke:none;stroke-width:0.05;stroke-linecap:butt;stroke-linejoin:miter;stroke-miterlimit:4;stroke-dasharray:none"
         id="path100660" />
      <path
         d="M 752.21438,349.52668 L 748.31815,349.52668 L 748.31815,348.12359 L 757.80513,348.12359 L 757.80513,349.52668 L 753.88732,349.52668 L 753.88732,360.85922 L 752.21438,360.85922 L 752.21438,349.52668"
         style="fill:#221e1f;fill-rule:nonzero;stroke:none;stroke-width:0.05;stroke-linecap:butt;stroke-linejoin:miter;stroke-miterlimit:4;stroke-dasharray:none"
         id="path100678" />
      <path
         d="M 769.96866,355.24697 C 769.87152,353.52005 769.76366,351.36154 769.76366,349.74256 L 769.72048,349.74256 C 769.26712,351.25359 768.74908,352.87248 768.10151,354.59939 L 765.84576,360.85922 L 764.59379,360.85922 L 762.50005,354.70725 C 761.89557,352.87248 761.39911,351.25359 761.04299,349.74256 L 760.99981,349.74256 C 760.96743,351.36154 760.87028,353.52005 760.76234,355.35482 L 760.41701,360.85922 L 758.84121,360.85922 L 759.73705,348.12359 L 761.84168,348.12359 L 764.02178,354.27557 C 764.55062,355.89454 764.9716,357.29754 765.31693,358.59277 L 765.34931,358.59277 C 765.69473,357.29754 766.148,355.89454 766.72001,354.27557 L 768.99735,348.12359 L 771.10189,348.12359 L 771.90058,360.85922 L 770.2709,360.85922 L 769.96866,355.24697"
         style="fill:#221e1f;fill-rule:nonzero;stroke:none;stroke-width:0.05;stroke-linecap:butt;stroke-linejoin:miter;stroke-miterlimit:4;stroke-dasharray:none"
         id="path100682" />
    </g>
  </g>
</svg>

<?xml version="1.0" encoding="utf-8"?>
<!-- Generator: Adobe Illustrator 27.4.1, SVG Export Plug-In . SVG Version: 6.00 Build 0)  -->
<svg version="1.1" id="svg101576" xmlns:svg="http://www.w3.org/2000/svg"
	 xmlns="http://www.w3.org/2000/svg" xmlns:xlink="http://www.w3.org/1999/xlink" x="0px" y="0px" viewBox="0 0 750.5 115.8"
	 style="enable-background:new 0 0 750.5 115.8;" xml:space="preserve">
<style type="text/css">
	.st0{fill:#C8C8C8;}
	.st1{fill:#221F1F;}
	.st2{fill:#221E1F;}
</style>
<g id="layer1" transform="translate(-35.53469,-263.1837)">
	<g id="g101650" transform="translate(7.088693,7.080902)">
		<path id="path100608" class="st0" d="M487.4,354.6c0,1.1-0.9,2.1-2,2.1h-37.8c-1.1,0-2-1-2-2.1v-27.3c0-1.1,0.9-1.9,2-1.9h37.8
			c1.1,0,2,0.9,2,1.9V354.6z M485.7,317.1h-38.5c-5.6,0-10.1,4.5-10.1,10.1v27.4c0,5.5,4.5,10.1,10.1,10.1h38.5
			c5.6,0,10.1-4.6,10.1-10.1v-27.4C495.9,321.7,491.3,317.1,485.7,317.1"/>
		<path id="path100618" class="st1" d="M44.4,276.1c0,0,0,34.8,0,35.3c-0.5,0-8.4,0-8.8,0c0-0.5,0-47.2,0-47.7c0.5,0,7.3,0,7.5,0
			l35.8,34.8c0,0,0-34.2,0-34.8c0.5,0,7.1,0,7.1,0s1.3,0,1.6,0c0,0.5,0,47.2,0,47.7c-0.5,0-6.7,0-6.9,0L44.4,276.1"/>
		<path id="path100622" class="st2" d="M132.9,276.1c0,0,0,34.8,0,35.3c-0.5,0-8.3,0-8.8,0c0-0.5,0-47.2,0-47.7c0.5,0,7.3,0,7.5,0
			l35.8,34.8c0,0,0-34.2,0-34.8c0.5,0,7.1,0,7.1,0s1.3,0,1.6,0c0,0.5,0,47.2,0,47.7c-0.5,0-6.7,0-6.9,0L132.9,276.1"/>
		<path id="path100626" class="st2" d="M316.3,276.1c0,0,0,34.8,0,35.3c-0.5,0-8.3,0-8.8,0c0-0.5,0-47.2,0-47.7c0.5,0,7.3,0,7.5,0
			l35.8,34.8c0,0,0-34.2,0-34.8c0.5,0,7.1,0,7.1,0s1.3,0,1.6,0c0,0.5,0,47.2,0,47.7c-0.5,0-6.7,0-6.9,0L316.3,276.1"/>
		<path id="path100630" class="st2" d="M108.6,263.7c0,0,1.3,0,1.6,0c0,0.5,0,47.2,0,47.7c-0.5,0-8.4,0-8.8,0c0-0.5,0-47.2,0-47.7
			C101.9,263.7,108.6,263.7,108.6,263.7"/>
		<path id="path100634" class="st2" d="M236.2,263.7c0,0,1.2,0,1.6,0c0,0.4,0,7.8,0,8.2c-0.5,0-21.3,0-21.3,0s0,39,0,39.5
			c-0.5,0-8.7,0-9.2,0c0-0.5,0-39.5,0-39.5s-20.8,0-21.3,0c0-0.4,0-7.8,0-8.2C186.6,263.7,236.2,263.7,236.2,263.7"/>
		<path id="path100638" class="st2" d="M292.7,263.7c0,0,1.3,0,1.7,0c0,0.4,0,7.8,0,8.2c-0.5,0-37.8,0-37.8,0v10.7
			c0,0,28.8,0,29.3,0c0,0.5,0,7.7,0,8.2c-0.5,0-29.3,0-29.3,0v12.4c0,0,37.3,0,37.8,0c0,0.4,0,7.7,0,8.2c-0.5,0-46.1,0-46.6,0
			c0-0.5,0-47.2,0-47.7C248.3,263.7,292.7,263.7,292.7,263.7"/>
		<path id="path100642" class="st2" d="M408.6,303.2h-27.1v-31.3h27.1c8.5,0,11.5,8.4,11.5,15.6
			C420.1,294.7,417.1,303.2,408.6,303.2z M423.1,270.7c-3.5-4.6-8.6-7-14.7-7c0,0-34.9,0-35.4,0c0,0.5,0,47.2,0,47.7
			c0.5,0,35.4,0,35.4,0c6.2,0,11.3-2.5,14.7-7c3.2-4.2,5-10,5-16.8C428,280.8,426.3,274.9,423.1,270.7"/>
		<path id="path100646" class="st2" d="M487.4,301.3c0,1-0.9,1.9-2,1.9h-37.8c-1.1,0-2-1-2-1.9v-27.4c0-1.1,0.9-1.9,2-1.9h37.8
			c1.1,0,2,0.9,2,1.9V301.3z M485.7,263.7h-38.5c-5.6,0-10.1,4.5-10.1,10.1v27.4c0,5.6,4.5,10.1,10.1,10.1h38.5
			c5.6,0,10.1-4.5,10.1-10.1v-27.4C495.9,268.3,491.3,263.7,485.7,263.7"/>
		<path id="path100656" class="st2" d="M646,344.7c9.2,3.7,28.5,6.6,43.6,6.6c16.5,0,23.3-5.6,23.3-12.7c0-6.5-6.3-10.1-24.6-16.8
			c-24.4-9-42.3-16.1-42.3-32.2c0-16.5,21.5-26.3,54.3-26.3c17.6,0,23.7,1.1,34.8,3.1l0.1,15.8c-11-2.1-20.7-5.6-35.8-5.6
			c-16.2,0-23.1,5.2-23.1,10.5c0,7.7,10.6,11.3,29.3,18c26,9.3,40.4,16.4,40.4,32.1c0,16.2-18.1,27.8-58.9,27.8
			c-16.8,0-28.3-1.1-41.2-3.2V344.7"/>
		<path id="path100660" class="st2" d="M559.1,277.1h-19.4v73.6h19.4c29.8,0,48.6-12.8,48.6-36.7C607.8,290.2,589,277.1,559.1,277.1
			z M611.3,357.5c-9.6,4.3-27.8,7.1-43.7,7.1h-60.7V263.4h60.7c15.9,0,34.1,2.8,43.7,7.1c23.4,10.6,31,27.5,31,43.5
			C642.3,330,634.8,346.9,611.3,357.5"/>
		<path id="path100678" class="st2" d="M752.2,349.5h-3.9v-1.4h9.5v1.4h-3.9v11.3h-1.7V349.5"/>
		<path id="path100682" class="st2" d="M770,355.2c-0.1-1.7-0.2-3.9-0.2-5.5h0c-0.5,1.5-1,3.1-1.6,4.9l-2.3,6.3h-1.3l-2.1-6.2
			c-0.6-1.8-1.1-3.5-1.5-5h0c0,1.6-0.1,3.8-0.2,5.6l-0.3,5.5h-1.6l0.9-12.7h2.1l2.2,6.2c0.5,1.6,0.9,3,1.3,4.3h0
			c0.3-1.3,0.8-2.7,1.4-4.3l2.3-6.2h2.1l0.8,12.7h-1.6L770,355.2"/>
	</g>
</g>
</svg>
